modules/framework7-icons/icons/add_round_fill.svg

<?xml version="1.0" encoding="UTF-8"?>
<svg width="44px" height="44px" viewBox="0 0 44 44" version="1.1" xmlns="http://www.w3.org/2000/svg" xmlns:xlink="http://www.w3.org/1999/xlink">
    <!-- Generator: Sketch 40.1 (33804) - http://www.bohemiancoding.com/sketch -->
    <title>add_round_fill</title>
    <desc>Created with Sketch.</desc>
    <defs></defs>
    <g id="Page-1" stroke="none" stroke-width="1" fill="none" fill-rule="evenodd">
        <g id="add_round_fill" transform="translate(-0.000000, 0.000000)" fill="#000000">
            <path d="M22,44 C34.1502645,44 44,34.1502645 44,22 C44,9.8497355 34.1502645,0 22,0 C9.8497355,0 0,9.8497355 0,22 C0,34.1502645 9.8497355,44 22,44 L22,44 L22,44 Z M23,21 L23,11 L21,11 L21,21 L11,21 L11,23 L21,23 L21,33 L23,33 L23,23 L33,23 L33,21 L23,21 L23,21 Z" id="Oval-33"></path>
        </g>
    </g>
</svg>

<svg width="44" height="44" xmlns="http://www.w3.org/2000/svg"><path d="M22 44c12.15 0 22-9.85 22-22S34.15 0 22 0 0 9.85 0 22s9.85 22 22 22zm1-23V11h-2v10H11v2h10v10h2V23h10v-2H23z" fill-rule="evenodd"/></svg>
